X:1
T:Possumwood
C:John Beale
M:C|
L:1/8
K:C
"C"C2E2 ED C2 | EF G2 "F"A4 |"C"E2E2 EF G2| "F"A4 "G"G4|
"Am" c2c2 cA G2|"F"AG2A "C"G4|E2G2 ED C2 | "Am"A,2>G,2 "G"A,G,A,B,:|
"C"C2 ed cBAG | "F"F2>G2 FE D2|"C"C2 ed cBcd| "Am"e2A2 A2>c2|
"G7" d2>e2 dcBc | dcde dcBc | dcde fefe | dcBA GFED:|"(trans to PLD):"dcBc defg|]
